X:6
T:Sheahan's MI Gig
C:John Sheahan (1939-)
R:Jig
O:Ireland
D:The Dubliners, `Together Again'
Z:Bert Van Vreckem <http://flanders.blackmill.net/>
N:Aan "De Vriezeman" te koppelen Ofwel aan "The Rocky Road to Dublin"
M:6/8
K:DDor
E | "Dm"FDD A2G | FDE FED | "C"ECC G2F | EGc AGE |\
"Dm"FDD A2G | FDE FGA | "C"GcA GFE | "Dm"FDD D2 :|
|: d | "Dm"Ade d2c | Acd ecA | "C"GEc AGE | "Dm"FEF DAd |\
Ade d2c | Acd "C"ecA | GEc AGE | "Dm"FDD D2 :|
